X: 6
T: The Coalminer's
R: reel
M: 4/4
L: 1/8
K: Gmaj
GE | DGGB AGGB | dGBG AGEG | DGGB AGGg | egdB AGEG |DGGB AGGB | dGBG AGEG | DGGB AGGg | egdB G2 ||ef | g2ge dgge | dBGB AGE2 | g2ge degb | agab a2ga |bagb ageg | dGBG AGEG | DGGB AGGg | egdB G2|]


Tune 1617	Setting 27877

